X:40
T:Lesnoto
Z:abc2
S:Gill Pearson
R:Other
O:S.E.Europe
M:7/8
K:Cm
ded c2~gf | ~g2f f4 | B2B defe | ~f2e e3B |\
ded c2gf | ~g2f ~f2ef | ~g2z  .d.e.d.c | c3z4 ||
C2c B2c2 | B2c G4 | A2G F2A2 | (G3 G4) | \
C2c B2c2 | B2c G4 | G2F E2D2 | (C3 C4) |
|: c3 (G2G)B | A2G F4 | AAG F2A2 | (G3G4) | \
A2G F2A2 | G2F E4 | G2F E2D2 \
|1 C3 CDEG :|2  C4z4 ||
